X:19
T:Boy in the Boat
Z: id:dc-reel-19
M:C
L:1/8
K:D Major
FG|A3F DFAF|GFEF G2FG|ADFD ADFD|GBAG FDFG|!
A3F DFAF|GFEF G2FG|AFAd BGBd|cAGE FD:|!
Dd|cded cAAB|cAdB cAAd|cBcd efed|cAGE FDDd|!
cded cAAB|cAdB cAAg|f3d e3d|cAGE FD:|!

